img/5Regular_customers/Client5.svg

<svg width="170" height="90" viewBox="0 0 170 90" fill="none" xmlns="http://www.w3.org/2000/svg">
<rect x="0.5" y="0.5" width="169" height="89" rx="3.5" stroke="#AFB1B8"/>
<path d="M60.4876 61.2778C60.7175 61.5634 60.84 61.9212 60.8336 62.2884C60.8453 62.528 60.8032 62.7671 60.7104 62.988C60.6176 63.209 60.4765 63.4062 60.2975 63.565C59.851 63.9037 59.2977 64.0692 58.7393 64.0313H56V57.6263H58.6832C59.2129 57.5909 59.7383 57.7413 60.1698 58.0518C60.3431 58.1974 60.4803 58.3815 60.5706 58.5895C60.6609 58.7974 60.7019 59.0236 60.6902 59.2502C60.706 59.6035 60.5954 59.9509 60.3786 60.2296C60.1704 60.4841 59.8826 60.6605 59.5621 60.7302C59.9255 60.7968 60.2535 60.9909 60.4876 61.2778ZM57.2746 60.3109H58.4215C58.6821 60.3303 58.941 60.2548 59.1507 60.0982C59.2368 60.0198 59.3038 59.9226 59.3465 59.8141C59.3892 59.7056 59.4064 59.5887 59.3969 59.4724C59.405 59.3565 59.3874 59.2403 59.3453 59.1321C59.3033 59.0239 59.2379 58.9264 59.1538 58.8466C58.9378 58.6856 58.6709 58.6088 58.4028 58.6307H57.2746V60.3109ZM59.2629 62.7672C59.3549 62.6869 59.4273 62.5865 59.4743 62.4736C59.5213 62.3607 59.5418 62.2385 59.534 62.1163C59.541 61.9928 59.5197 61.8693 59.4716 61.7554C59.4235 61.6414 59.35 61.5401 59.2567 61.4593C59.0323 61.2922 58.7563 61.2102 58.4776 61.2277H57.2746V62.9893H58.4931C58.7674 63.0052 59.0389 62.9269 59.2629 62.7672Z" fill="#AFB1B8"/>
<path d="M65.9724 64.0313L64.4797 61.5281H63.9187V64.0313H62.6348V57.6263H65.0656C65.6783 57.5834 66.284 57.7783 66.7578 58.1708C67.0976 58.5184 67.3025 58.9764 67.3357 59.4624C67.3688 59.9483 67.228 60.4301 66.9385 60.821C66.6386 61.1659 66.229 61.3959 65.7792 61.4718L67.3686 64.0313H65.9724ZM63.9187 60.6552H64.969C65.6982 60.6552 66.0628 60.3318 66.0628 59.6852C66.0703 59.5531 66.0503 59.421 66.0041 59.2971C65.958 59.1732 65.8867 59.0603 65.7948 58.9655C65.5644 58.7731 65.2676 58.6798 64.969 58.7058H63.9063L63.9187 60.6552Z" fill="#AFB1B8"/>
<path d="M72.9905 62.742H70.432L69.9801 64.0311H68.6338L70.9836 57.6981H72.4389L74.7794 64.0311H73.4331L72.9905 62.742ZM72.6477 61.772L71.7128 59.0686L70.7779 61.772H72.6477Z" fill="#AFB1B8"/>
<path d="M81.7759 64.0312H80.5013L77.6436 59.6757V64.0312H76.3721V57.6262H77.6436L80.5013 62.0068V57.6262H81.7759V64.0312Z" fill="#AFB1B8"/>
<path d="M89.0497 62.4981C88.7862 62.9817 88.3846 63.375 87.8966 63.6276C87.3418 63.909 86.7261 64.0477 86.1047 64.0313H83.8359V57.6263H86.1047C86.725 57.61 87.3399 57.7453 87.8966 58.0206C88.3845 58.2674 88.7865 58.6569 89.0497 59.1376C89.3121 59.6585 89.4488 60.2341 89.4488 60.8178C89.4488 61.4016 89.3121 61.9772 89.0497 62.4981ZM87.5912 62.3448C87.955 61.9193 88.155 61.377 88.155 60.8163C88.155 60.2555 87.955 59.7133 87.5912 59.2878C87.1515 58.9024 86.5781 58.7067 85.9956 58.7433H85.1106V62.8892H85.9956C86.5781 62.9258 87.1515 62.7302 87.5912 62.3448Z" fill="#AFB1B8"/>
<path d="M73.7886 22C73.7886 22 90.2401 28.236 89.8911 37.2599V52.5229C89.8911 52.5229 73.452 46.2838 73.7948 37.2599L73.7886 22Z" fill="#AFB1B8"/>
<path d="M104.547 48.9496C107.654 46.8028 111.248 45.4731 115 45.0822V40.3043C110.677 41.977 107.01 45.0101 104.547 48.9496Z" fill="#AFB1B8"/>
<path d="M102.681 50.389C105.224 45.2478 109.633 41.2805 115 39.3032V25.5358C115 25.5358 91.5708 34.4189 92.0663 47.2695V69C92.0663 69 93.1103 68.6027 94.7527 67.858C94.7527 67.1633 94.7527 66.4625 94.8275 65.7584C95.3124 59.7926 98.1372 54.2643 102.681 50.389Z" fill="#AFB1B8"/>
<path d="M100.453 58.4617C100.576 56.9546 100.85 55.4639 101.272 54.0123C98.4432 57.3589 96.7299 61.5117 96.3734 65.8867C96.3391 66.2997 96.3204 66.7127 96.311 67.1383C97.6417 66.4968 99.1906 65.6958 100.817 64.754C100.402 62.6842 100.279 60.5659 100.453 58.4617Z" fill="#AFB1B8"/>
<path d="M101.385 58.54C101.229 60.4437 101.326 62.3599 101.674 64.2378C108.076 60.3923 115.268 54.4504 114.991 47.2695V46.6437C110.417 47.1575 106.139 49.1648 102.812 52.3571C102.033 54.3355 101.552 56.4193 101.385 58.54Z" fill="#AFB1B8"/>
</svg>

<svg width="170" height="90" fill="none" xmlns="http://www.w3.org/2000/svg"><rect x=".5" y=".5" width="169" height="89" rx="3.5" stroke="#AFB1B8"/><path d="M60.488 61.278c.23.285.352.643.346 1.01a1.604 1.604 0 01-.537 1.277c-.446.339-1 .504-1.558.466H56v-6.405h2.683a2.284 2.284 0 011.487.426 1.463 1.463 0 01.52 1.198c.016.353-.095.7-.311.98-.209.254-.496.43-.817.5.364.067.692.26.926.548zm-3.213-.967h1.147c.26.02.519-.056.729-.213a.761.761 0 00.246-.626.787.787 0 00-.243-.625 1.106 1.106 0 00-.751-.216h-1.128v1.68zm1.988 2.456a.796.796 0 00.271-.65.81.81 0 00-.277-.658 1.18 1.18 0 00-.78-.231h-1.202v1.761h1.218c.274.016.546-.062.77-.222zM65.972 64.031l-1.492-2.503h-.561v2.503h-1.284v-6.405h2.43a2.39 2.39 0 011.693.545 2.047 2.047 0 01.18 2.65c-.3.345-.709.575-1.159.65l1.59 2.56h-1.397zm-2.053-3.376h1.05c.73 0 1.094-.323 1.094-.97a.956.956 0 00-.268-.72 1.135 1.135 0 00-.826-.26h-1.063l.013 1.95zM72.99 62.742h-2.558l-.452 1.29h-1.346l2.35-6.334h1.455l2.34 6.333h-1.346l-.443-1.289zm-.342-.97l-.935-2.703-.935 2.703h1.87zM81.776 64.031H80.5l-2.857-4.355v4.355h-1.272v-6.405h1.272l2.857 4.38v-4.38h1.275v6.405zM89.05 62.498a2.757 2.757 0 01-1.153 1.13c-.555.281-1.17.42-1.792.403h-2.27v-6.405h2.27a3.816 3.816 0 011.792.395c.487.246.89.636 1.153 1.117a3.735 3.735 0 010 3.36zm-1.459-.153a2.352 2.352 0 000-3.057 2.21 2.21 0 00-1.595-.545h-.885v4.146h.885a2.21 2.21 0 001.595-.544zM73.789 22S90.24 28.236 89.89 37.26v15.263s-16.439-6.24-16.096-15.263L73.789 22zM104.547 48.95A22.486 22.486 0 01115 45.082v-4.778a21.468 21.468 0 00-10.453 8.646z" fill="#AFB1B8"/><path d="M102.681 50.389A22.383 22.383 0 01115 39.303V25.536s-23.43 8.883-22.934 21.733V69s1.044-.397 2.687-1.142c0-.695 0-1.395.075-2.1a22.605 22.605 0 017.853-15.369z" fill="#AFB1B8"/><path d="M100.453 58.462c.123-1.507.397-2.998.819-4.45a21.042 21.042 0 00-4.961 13.126 67.927 67.927 0 004.506-2.384 22.554 22.554 0 01-.364-6.292zM101.385 58.54a21.593 21.593 0 00.289 5.698c6.402-3.846 13.594-9.788 13.317-16.968v-.626a20.971 20.971 0 00-12.179 5.713 21.479 21.479 0 00-1.427 6.183z" fill="#AFB1B8"/></svg>
